X:18
T: MAEDCHEN GEH DU NUR HEIM
N: E0633
O: Europa, Mitteleuropa, Deutschland, Hessen, Wetterau
R: Liebes - Lied
M: 3/4
L: 1/8
K: Eb
 | E,2G,2B,2 | E2DCB,2 |
C2A,2EC | B,3A,G,2 |
B,B,A,A,F,F, | CCB,B,G,G, |
B,B,A,A,F,F, | CCB,B,G,G, |
E,2G,2B,2 | G6 |
F2A2D2 | E4z2

